img/svg-filtro-ativo.svg

<svg xmlns="http://www.w3.org/2000/svg" height="48" width="48"><path d="M28 26v12q0 .85-.575 1.425Q26.85 40 26 40h-4q-.85 0-1.425-.575Q20 38.85 20 38V26L8.05 10.75q-.7-.85-.2-1.8Q8.35 8 9.4 8h29.2q1.05 0 1.55.95t-.2 1.8Zm-4 .2L36 11H12Zm0 0Z"/></svg>

<svg xmlns="http://www.w3.org/2000/svg" height="48" width="48"><path d="M28 26V38Q28 38.85 27.425 39.425Q26.85 40 26 40H22Q21.15 40 20.575 39.425Q20 38.85 20 38V26L8.05 10.75Q7.35 9.9 7.85 8.95Q8.35 8 9.4 8H38.6Q39.65 8 40.15 8.95Q40.65 9.9 39.95 10.75ZM24 26.2 36 11H12ZM24 26.2Z"/></svg>
